public/brands/phonegap.svg

<?xml version="1.0" encoding="UTF-8" standalone="no" ?>
<svg width="256px" height="279px" viewBox="0 0 256 279" version="1.1" xmlns="http://www.w3.org/2000/svg" xmlns:xlink="http://www.w3.org/1999/xlink" preserveAspectRatio="xMidYMid">
    <g fill="#000000">
        <path d="M242.562388,40.6566784 C241.738094,19.1509418 222.834903,14.6404794 222.834903,14.6404794 C222.834903,14.6404794 157.317426,4.76747541 128.615326,1.18318598 C99.9039643,-2.41962691 101.691478,25.4026094 101.691478,25.4026094 C101.691478,25.4026094 108.211735,228.188183 108.887842,253.305994 C109.656566,283.230643 137.589943,278.414544 137.589943,278.414544 L236.301459,261.345176 C254.250691,257.751624 255.139817,235.338239 255.139817,235.338239 C255.139817,235.338239 243.479299,64.1351634 242.562388,40.6566784 C241.738094,19.1509418 243.479299,64.1351634 242.562388,40.6566784 L242.562388,40.6566784 L242.562388,40.6566784 Z M220.482424,212.91559 L147.083216,220.519471 C147.083216,220.519471 125.707143,223.7796 125.225533,197.809709 C124.873587,178.674975 120.640977,69.0716653 120.640977,69.0716653 C120.640977,69.0716653 119.168362,48.9737117 141.16497,50.6222996 C163.615403,52.2894109 217.40753,56.3830955 217.40753,56.3830955 C217.40753,56.3830955 231.809519,59.8099355 232.439317,76.2217208 C233.115423,94.0598123 239.330044,193.123274 239.330044,193.123274 C239.330044,193.123274 240.950847,209.405395 220.482424,212.91559 L220.482424,212.91559 L220.482424,212.91559 Z"></path>
        <path d="M40.7956042,183.370672 L27.2364318,184.333892 C27.2364318,184.333892 13.556857,186.186239 13.2419582,171.219283 C13.0196766,160.188563 11.6489407,97.5792692 11.6489407,97.5792692 C11.6489407,97.5792692 10.7042442,85.9928456 24.7728118,86.9375421 C28.3385777,87.1690854 33.3954822,87.4932459 38.9803052,87.8266682 C38.7858089,77.4442691 38.6190978,68.3677739 38.4894336,61.4585235 C30.7466275,60.8750344 23.5039548,60.2452369 18.3266478,59.6987948 C-0.261643866,57.6519525 0.877548894,73.2579672 0.877548894,73.2579672 C0.877548894,73.2579672 3.11888755,188.084893 3.53566531,202.162723 C4.04506051,218.944977 22.1146953,216.222029 22.1146953,216.222029 L41.4068784,214.156663 C41.2401673,205.830367 41.0178858,195.216425 40.7956042,183.370672 L40.7956042,183.370672 L40.7956042,183.370672 Z"></path>
        <path d="M94.7266568,79.0002396 C94.6618247,77.5368863 94.4210198,76.2031973 94.0505506,75.0084342 C88.1137818,74.5268242 73.2116586,70.6461594 68.432606,75.6938022 C65.4040204,78.8705754 66.6543538,85.5668061 66.7284477,89.373377 C73.1190413,89.7345846 77.5368863,89.9846512 77.5368863,89.9846512 C77.5368863,89.9846512 86.7523075,91.9573997 87.1505619,101.404364 C87.5766015,111.703407 87.5210311,169.394723 87.5210311,169.394723 C87.5210311,169.394723 88.5583448,178.804639 75.4807824,180.795911 L68.6178406,181.305307 C68.6548876,183.352149 68.6919344,185.000738 68.7104579,186.223286 C68.9975715,202.672118 86.4929791,197.402194 97.4681285,196.337094 C98.4128252,178.887996 96.7364522,160.910978 96.3474596,143.452617 C95.8751113,121.974665 95.6991385,100.459668 94.7266568,79.0002396 C94.6618247,77.5368863 95.3194075,92.1333725 94.7266568,79.0002396 L94.7266568,79.0002396 L94.7266568,79.0002396 Z"></path>
        <path d="M100.404097,203.079634 L80.6303041,204.98755 C80.6303041,204.98755 62.1902001,207.636404 61.7919458,186.389997 C61.5048321,170.709888 59.6524862,81.834329 59.6524862,81.834329 C59.6524862,81.834329 58.3743675,65.4040204 77.2960814,66.7191859 C82.1584895,67.0526082 88.8454585,67.5990503 96.125178,68.1825393 C95.5787361,51.1316948 95.1434347,37.6836631 94.9211532,30.7558892 C84.955532,29.7834075 75.564138,28.8016642 68.6178406,28.0051555 C43.6111702,25.1710661 45.1856642,47.2788152 45.1856642,47.2788152 C45.1856642,47.2788152 48.1586795,210.303783 48.7421684,230.225764 C49.4182747,254.037671 73.7488389,250.212577 73.7488389,250.212577 L101.747048,246.628287 C101.469197,237.357295 100.996848,221.788328 100.404097,203.079634 L100.404097,203.079634 L100.404097,203.079634 Z"></path>
        <path d="M140.637052,57.5500735 C137.136118,57.2722216 132.884984,57.5037649 130.291699,60.2359751 C127.550227,63.1071113 127.503918,67.1822724 127.661368,70.868441 C137.58068,71.7297818 144.777045,72.3688411 144.777045,72.3688411 C144.777045,72.3688411 157.169239,75.1566218 157.734205,88.58613 C158.308432,103.191878 161.855675,182.555641 161.855675,182.555641 C161.855675,182.555641 163.244934,195.901794 145.629124,198.782191 L132.292232,200.06031 C134.061223,220.908463 161.022119,212.10982 174.812835,210.683514 C173.39579,179.332559 169.00573,82.3715093 168.014724,59.6061775 C157.558232,58.7911452 147.574087,58.0409452 140.637052,57.5500735 C139.951683,57.4945031 147.574087,58.0409452 140.637052,57.5500735 L140.637052,57.5500735 L140.637052,57.5500735 Z"></path>
    </g>
</svg>

<svg width="256" height="279" viewBox="0 0 256 279" xmlns="http://www.w3.org/2000/svg" preserveAspectRatio="xMidYMid"><path d="M242.562 40.657c-.824-21.506-19.727-26.017-19.727-26.017s-65.518-9.873-94.22-13.457c-28.711-3.603-26.924 24.22-26.924 24.22s6.52 202.785 7.197 227.903c.769 29.925 28.702 25.109 28.702 25.109l98.711-17.07c17.95-3.593 18.839-26.007 18.839-26.007S243.48 64.135 242.562 40.657c-.824-21.506.917 23.478 0 0zm-22.08 172.259l-73.399 7.603s-21.376 3.26-21.857-22.71c-.352-19.134-4.585-128.737-4.585-128.737s-1.473-20.098 20.524-18.45c22.45 1.667 76.243 5.761 76.243 5.761s14.402 3.427 15.031 19.839c.676 17.838 6.891 116.901 6.891 116.901s1.62 16.282-18.848 19.793zM40.796 183.37l-13.56.964s-13.68 1.852-13.994-13.115c-.222-11.03-1.593-73.64-1.593-73.64s-.945-11.586 13.124-10.641c3.566.231 8.622.555 14.207.889-.194-10.383-.36-19.46-.49-26.368-7.743-.584-14.986-1.214-20.163-1.76C-.262 57.652.877 73.258.877 73.258S3.12 188.085 3.537 202.163c.51 16.782 18.579 14.059 18.579 14.059l19.292-2.065c-.167-8.327-.39-18.94-.611-30.786zM94.727 79a15.823 15.823 0 0 0-.676-3.992c-5.937-.481-20.84-4.362-25.618.686-3.029 3.177-1.779 9.873-1.705 13.68l10.809.61s9.215 1.973 9.614 11.42c.426 10.3.37 67.99.37 67.99s1.037 9.41-12.04 11.402l-6.863.51c.037 2.046.074 3.695.092 4.917.288 16.45 17.783 11.18 28.758 10.114.945-17.449-.732-35.426-1.12-52.884-.473-21.478-.649-42.993-1.621-64.453-.065-1.463.592 13.133 0 0z"/><path d="M100.404 203.08l-19.774 1.908s-18.44 2.648-18.838-18.598c-.287-15.68-2.14-104.556-2.14-104.556s-1.278-16.43 17.644-15.115c4.862.334 11.55.88 18.83 1.464-.547-17.051-.983-30.5-1.205-37.427-9.965-.973-19.357-1.954-26.303-2.75C43.61 25.17 45.186 47.278 45.186 47.278s2.973 163.025 3.556 182.947c.676 23.812 25.007 19.987 25.007 19.987l27.998-3.585c-.278-9.27-.75-24.84-1.343-43.548zM140.637 57.55c-3.5-.278-7.752-.046-10.345 2.686-2.742 2.871-2.788 6.946-2.63 10.632 9.919.862 17.115 1.5 17.115 1.5s12.392 2.789 12.957 16.218c.574 14.606 4.122 93.97 4.122 93.97s1.389 13.346-16.227 16.226l-13.337 1.278c1.77 20.848 28.73 12.05 42.52 10.624-1.416-31.351-5.806-128.312-6.797-151.078a4171.085 4171.085 0 0 0-27.378-2.056c-.685-.055 6.937.49 0 0z"/></svg>
